X: 4258
T: Bob In The Wash House
R: reel
M: 4/4
K: Dmajor
"D"A2 A>F "Bm"D>E F>G|"D"A>F A>d"G"B2 G>c|"A"e2 e>c A>B c>d|e>c e>a f2 d2|
"D"A2 A>F "Bm"D>E F>G|"D"A>F A>d "G"B2 G2|"D"(3fgf f>d "A7"e>f e>c|"D"d2 d>d d3 A:|
"D"d2d>A d2d>A|d>e d>A G>F D2|"A"e2e>c e2e>c|(3fgf e>d c2A2|
"D"d2d>A d2d>A|d2A>G F2D2|"D"(3fgf f>d "A7"e>f e>c|"D"d2 d>d d4:|

